src/pug/_include/freeship.svg

<svg width="18" height="18" viewBox="0 0 18 18">
<path d="M17.0343 3.83072C17.0343 3.60237 16.8963 3.39661 16.6851 3.30981L8.73114 0.0422358C8.59401 -0.0140786 8.44027 -0.0140786 8.30315 0.0422358L0.34915 3.30981C0.137935 3.39657 0 3.60237 0 3.83072V14.1693C0 14.3976 0.1379 14.6034 0.34915 14.6902L8.30315 17.9578C8.43879 18.0135 8.59127 18.0147 8.73043 17.9577C8.73723 17.9555 8.43608 18.079 16.6851 14.6902C16.8964 14.6034 17.0343 14.3976 17.0343 14.1693V3.83072ZM8.51714 6.53684L5.5864 5.33287L11.9201 2.56991L15.0468 3.85441L8.51714 6.53684ZM1.12629 4.71824L3.65484 5.75699V8.6876C3.65484 8.99859 3.90699 9.25074 4.21799 9.25074C4.52899 9.25074 4.78113 8.99859 4.78113 8.6876V6.21969L7.954 7.52312V16.5967L1.12629 13.7918V4.71824ZM8.51714 1.17194L10.4694 1.97393L4.1357 4.73689L1.98748 3.85437L8.51714 1.17194ZM9.08029 7.52312L15.908 4.71824V13.7918L9.08029 16.5967V7.52312Z" fill="#4E5B67"/>
</svg>

<svg xmlns="http://www.w3.org/2000/svg" width="18" height="18"><path d="M17.034 3.83c0-.228-.138-.434-.35-.52L8.73.042c-.137-.056-.29-.056-.428 0L.35 3.3c-.21.087-.35.293-.35.52v10.34c0 .228.138.434.35.52l7.954 3.268a.56.56 0 0 0 .427 0c.007-.002-.294.12 7.955-3.267.21-.087.35-.293.35-.52V3.83zM8.517 6.537l-2.93-1.204L11.92 2.57l3.127 1.285-6.53 2.682zm-7.39-1.82l2.53 1.04v2.93c0 .31.252.563.563.563S4.78 9 4.78 8.688V6.22l3.173 1.303v9.074l-6.828-2.805V4.718zm7.39-3.546l1.952.802-6.334 2.763-2.148-.883 6.53-2.682zm.563 6.35l6.828-2.805v9.074L9.08 16.597V7.523z" fill="#4e5b67"/></svg>
